packages/kaspersky-hexa-ui-icons/src/iconsSVGs/16/PodK8S.svg

<svg width="16" height="16" viewBox="0 0 16 16" fill="none" xmlns="http://www.w3.org/2000/svg">
<path fill-rule="evenodd" clip-rule="evenodd" d="M8.20565 1.38345C8.07222 1.33898 7.92797 1.33898 7.79455 1.38345L1.80877 3.37871C1.73869 3.40027 1.67367 3.43335 1.6159 3.47574C1.57803 3.5035 1.54348 3.53514 1.51272 3.57001C1.41152 3.68461 1.3501 3.83518 1.3501 4.0001V11.5001C1.3501 11.7596 1.5044 11.9942 1.74264 12.0969L7.74264 14.6852C7.90696 14.7561 8.09324 14.7561 8.25756 14.6852L14.2576 12.0969C14.4958 11.9942 14.6501 11.7596 14.6501 11.5001L14.6501 4.0001C14.6501 3.83518 14.5887 3.68461 14.4875 3.57001C14.4567 3.53514 14.4222 3.50349 14.3843 3.47574C14.3265 3.43335 14.2615 3.40027 14.1914 3.37872L8.20565 1.38345ZM13.3501 4.90192L8.63973 6.47205C8.64654 6.50978 8.6501 6.54864 8.6501 6.58833V13.1L13.3501 11.0726V4.90192ZM7.36047 6.47205L2.6501 4.90192V11.0726L7.3501 13.1V6.58833C7.3501 6.54864 7.35366 6.50978 7.36047 6.47205ZM8.0001 5.31494L4.05558 4.0001L8.0001 2.68526L11.9446 4.0001L8.0001 5.31494Z" fill="black"/>
</svg>

<svg xmlns="http://www.w3.org/2000/svg" width="16" height="16" fill="none" viewBox="0 0 16 16"><path fill="#000" fill-rule="evenodd" d="M8.2055 1.3833a.65.65 0 0 0-.411 0L1.8086 3.3786a.65.65 0 0 0-.2961.1913.648.648 0 0 0-.1626.43V11.5a.65.65 0 0 0 .3925.5968l6 2.5882a.65.65 0 0 0 .515 0l5.9999-2.5882A.65.65 0 0 0 14.65 11.5V4a.647.647 0 0 0-.1627-.4301.65.65 0 0 0-.296-.1913zM13.35 4.9018 8.6396 6.4719a.65.65 0 0 1 .0104.1163V13.1l4.7-2.0274zM7.3604 6.4719 2.65 4.9018v6.1707l4.7 2.0274V6.5882a.65.65 0 0 1 .0104-.1163M8 5.315 4.0555 4 8 2.6852 11.9445 4z"/></svg>
